src/icons/octicons/fold-up-16.svg

<svg width="16" height="16" viewBox="0 0 16 16" fill="none" xmlns="http://www.w3.org/2000/svg">
<path d="M7.823 1.677L4.927 4.573C4.89195 4.60797 4.86806 4.65255 4.85838 4.70111C4.8487 4.74966 4.85365 4.8 4.87261 4.84573C4.89157 4.89147 4.92368 4.93055 4.96487 4.95801C5.00607 4.98548 5.05449 5.00009 5.104 5H7.25V8.236C7.25 8.43491 7.32902 8.62568 7.46967 8.76633C7.61032 8.90698 7.80109 8.986 8 8.986C8.19891 8.986 8.38968 8.90698 8.53033 8.76633C8.67098 8.62568 8.75 8.43491 8.75 8.236V5H10.896C10.9455 5.00009 10.9939 4.98548 11.0351 4.95801C11.0763 4.93055 11.1084 4.89147 11.1274 4.84573C11.1464 4.8 11.1513 4.74966 11.1416 4.70111C11.1319 4.65255 11.1081 4.60797 11.073 4.573L8.177 1.677C8.15378 1.65372 8.12619 1.63525 8.09582 1.62264C8.06544 1.61004 8.03288 1.60355 8 1.60355C7.96712 1.60355 7.93456 1.61004 7.90418 1.62264C7.87381 1.63525 7.84622 1.65372 7.823 1.677V1.677ZM13.75 11C13.5511 11 13.3603 11.079 13.2197 11.2197C13.079 11.3603 13 11.5511 13 11.75C13 11.9489 13.079 12.1397 13.2197 12.2803C13.3603 12.421 13.5511 12.5 13.75 12.5H14.25C14.4489 12.5 14.6397 12.421 14.7803 12.2803C14.921 12.1397 15 11.9489 15 11.75C15 11.5511 14.921 11.3603 14.7803 11.2197C14.6397 11.079 14.4489 11 14.25 11H13.75ZM10 11.75C10 11.5511 10.079 11.3603 10.2197 11.2197C10.3603 11.079 10.5511 11 10.75 11H11.25C11.4489 11 11.6397 11.079 11.7803 11.2197C11.921 11.3603 12 11.5511 12 11.75C12 11.9489 11.921 12.1397 11.7803 12.2803C11.6397 12.421 11.4489 12.5 11.25 12.5H10.75C10.5511 12.5 10.3603 12.421 10.2197 12.2803C10.079 12.1397 10 11.9489 10 11.75V11.75ZM7.75 11C7.55109 11 7.36032 11.079 7.21967 11.2197C7.07902 11.3603 7 11.5511 7 11.75C7 11.9489 7.07902 12.1397 7.21967 12.2803C7.36032 12.421 7.55109 12.5 7.75 12.5H8.25C8.44891 12.5 8.63968 12.421 8.78033 12.2803C8.92098 12.1397 9 11.9489 9 11.75C9 11.5511 8.92098 11.3603 8.78033 11.2197C8.63968 11.079 8.44891 11 8.25 11H7.75ZM4 11.75C4 11.5511 4.07902 11.3603 4.21967 11.2197C4.36032 11.079 4.55109 11 4.75 11H5.25C5.44891 11 5.63968 11.079 5.78033 11.2197C5.92098 11.3603 6 11.5511 6 11.75C6 11.9489 5.92098 12.1397 5.78033 12.2803C5.63968 12.421 5.44891 12.5 5.25 12.5H4.75C4.55109 12.5 4.36032 12.421 4.21967 12.2803C4.07902 12.1397 4 11.9489 4 11.75V11.75ZM1.75 11C1.55109 11 1.36032 11.079 1.21967 11.2197C1.07902 11.3603 1 11.5511 1 11.75C1 11.9489 1.07902 12.1397 1.21967 12.2803C1.36032 12.421 1.55109 12.5 1.75 12.5H2.25C2.44891 12.5 2.63968 12.421 2.78033 12.2803C2.92098 12.1397 3 11.9489 3 11.75C3 11.5511 2.92098 11.3603 2.78033 11.2197C2.63968 11.079 2.44891 11 2.25 11H1.75Z" fill="black"/>
</svg>

<svg xmlns="http://www.w3.org/2000/svg" width="16" height="16" viewBox="0 0 16 16"><path d="M7.823 1.677L4.927 4.573A.25.25 0 005.104 5H7.25v3.236a.75.75 0 101.5 0V5h2.146a.25.25 0 00.177-.427L8.177 1.677a.25.25 0 00-.354 0zM13.75 11a.75.75 0 000 1.5h.5a.75.75 0 000-1.5h-.5zm-3.75.75a.75.75 0 01.75-.75h.5a.75.75 0 010 1.5h-.5a.75.75 0 01-.75-.75zM7.75 11a.75.75 0 000 1.5h.5a.75.75 0 000-1.5h-.5zM4 11.75a.75.75 0 01.75-.75h.5a.75.75 0 010 1.5h-.5a.75.75 0 01-.75-.75zM1.75 11a.75.75 0 000 1.5h.5a.75.75 0 000-1.5h-.5z"/></svg>
